X: 1
T: the Western Lasses
C: Dunlop
Z: 2020 John Chambers <jc:trillian.mit.edu>
S: https://www.facebook.com/groups/Fiddletuneoftheday/
S: https://www.facebook.com/groups/Fiddletuneoftheday/photos/
M: C|
L: 1/8
K: C
(GF) |\
"C"EGcG AGcG | EGcG "F"(ED)(DG) | "C"EGcG AGcG | "G"EGDF "C"(EC)(CG) |\
"C"EGcG AGcG | EGcG "G"(ED)(DG) | "C"EGAB "F"cdef | "G"aefd "C"(ec)c2 |
"C"e3e "G"d2(dc) | "F"AcGc AcGc | "C"e3e "G"d2(dc) | "F"(3ABc GE "G"(ED)D2 |\
"C"efec "G"dedc | "F"ABc Gc (3ABc Gc | "Am"ea{b}ag "G"egdc | "F"(3ABc GE "G"(ED)D2 ||
"C"efge c2(cd) | "Am"ea{b}ag aged | "C"(3efg ec (cB)cd | "Am"ea{b}ag (3efg dg |\
"C"efge c2(cd) | "Am"ea{b}ag aged | "C"(3efg ed cBcG | "F"(3ABc GF "C"(EC)C2 |]
